!! 00005] TT[TB
!! Eigene Aufnahme
!!!OTL: Wo ai mao zhuxi
!!!ARE: Hunan, Tongdao (Westen i.d. N„he v. Guizhou und Guangxi)
!! Ethnic Group: Dong (Text auf Hanyu)
!! I, 489 (1)
!!!SCT: C0141
!!!YEM: Copyright 1995, estate of Helmut Schaffrath.
**kern
*ICvox
*Ivox
*M2/4
*k[]
*C:
{8a
4.cc
=1
8dd
8ee
16dd
16cc
8a}
=2
{8a
8cc
8a
8a
=3
8dd
16ee
16cc
4dd
=4
16cc
16dd
16ee
16cc
4dd}
=5
{16dd
16cc
16a
16dd
16cc
8.a
=6
8cc
16a
16g
8.a
16r}
=7
{8dd
8ee
8dd
16cc
16a
=8
8a
16cc
16a
4a}
=9
{8dd
8ee
8dd
16cc
16a
=10
8a
16cc
16a
8a
8r}
=11
{8a
4.cc
=12
16dd
16cc
16a
16g
8a
8r}
=13
{8dd
8ee
8dd
16cc
16a
=14
8dd
16ee
16cc
4dd
=15
16cc
16dd
16ee
16cc
4dd}
=16
{16dd
16cc
16a
16dd
16cc
8.a
=17
8cc
16a
16g
8a
8r}
=18
{8dd
8ee
8dd
16cc
16a
=19
8a
16cc
16a
4a}
=20
{8dd
8ee
8dd
16cc
16a
=21
8a
16cc
16a
4a}
==
!!!AGN: Hua ge. Xinminge
!! Saengerin: Huang Bai.   (sehr typ. Tonart)
!!    Vereinzelt Verzierungen.
!!!ONB: ESAC (Essen Associative Code) Database: CHINA
!!!AMT: simple duple
!!!AIN: vox
!!!EED: Helmut Schaffrath
!!!EEV: 1.0
*-
